docs/graphics/foundations/design-tokens.svg

<svg width="312" height="180" viewBox="0 0 312 180" fill="none" xmlns="http://www.w3.org/2000/svg">
<rect width="312" height="180" fill="none"/>
<path fill-rule="evenodd" clip-rule="evenodd" d="M103.933 48.6969C105.271 48.5666 106.628 48.5 108 48.5C109.372 48.5 110.729 48.5666 112.067 48.6969C112.892 48.7772 113.495 49.5106 113.415 50.3351C113.335 51.1597 112.601 51.763 111.777 51.6828C110.535 51.5619 109.275 51.5 108 51.5C106.725 51.5 105.465 51.5619 104.223 51.6828C103.399 51.763 102.665 51.1597 102.585 50.3351C102.505 49.5106 103.108 48.7772 103.933 48.6969ZM118.18 51.2776C118.42 50.4848 119.257 50.0368 120.05 50.277C122.676 51.0724 125.191 52.1208 127.567 53.3938C128.298 53.7849 128.573 54.694 128.181 55.4243C127.79 56.1545 126.881 56.4295 126.151 56.0383C123.947 54.8577 121.614 53.8855 119.18 53.1481C118.388 52.9079 117.94 52.0704 118.18 51.2776ZM97.8202 51.2776C98.0604 52.0704 97.6124 52.9079 96.8196 53.1481C94.3856 53.8855 92.0533 54.8577 89.849 56.0383C89.1187 56.4295 88.2097 56.1545 87.8185 55.4243C87.4274 54.694 87.7023 53.7849 88.4325 53.3938C90.8091 52.1208 93.3243 51.0724 95.9497 50.277C96.7426 50.0368 97.58 50.4848 97.8202 51.2776ZM132.217 58.1262C132.743 57.4861 133.688 57.3935 134.328 57.9194C136.428 59.6446 138.355 61.5719 140.081 63.6716C140.606 64.3117 140.514 65.2569 139.874 65.7829C139.234 66.3088 138.289 66.2162 137.763 65.5761C136.161 63.6273 134.373 61.8385 132.424 60.2374C131.784 59.7115 131.691 58.7662 132.217 58.1262ZM83.7829 58.1262C84.3088 58.7662 84.2162 59.7115 83.5761 60.2374C81.6273 61.8385 79.8385 63.6273 78.2374 65.5761C77.7115 66.2162 76.7662 66.3088 76.1262 65.7829C75.4861 65.257 75.3935 64.3117 75.9194 63.6716C77.6446 61.5719 79.5719 59.6446 81.6716 57.9194C82.3117 57.3935 83.2569 57.4861 83.7829 58.1262ZM142.576 69.8185C143.306 69.4274 144.215 69.7023 144.606 70.4325C145.879 72.8091 146.928 75.3243 147.723 77.9497C147.963 78.7426 147.515 79.58 146.722 79.8202C145.93 80.0604 145.092 79.6124 144.852 78.8196C144.114 76.3856 143.142 74.0533 141.962 71.849C141.571 71.1187 141.845 70.2097 142.576 69.8185ZM73.4243 69.8185C74.1545 70.2097 74.4295 71.1187 74.0383 71.849C72.8577 74.0533 71.8855 76.3856 71.1481 78.8196C70.9079 79.6125 70.0704 80.0604 69.2776 79.8202C68.4848 79.58 68.0368 78.7426 68.277 77.9497C69.0724 75.3243 70.1208 72.8091 71.3938 70.4325C71.7849 69.7023 72.694 69.4274 73.4243 69.8185ZM68.3351 84.5849C69.1597 84.6651 69.763 85.3986 69.6828 86.2231C69.5619 87.4653 69.5 88.7252 69.5 90C69.5 91.2748 69.5619 92.5347 69.6828 93.7769C69.763 94.6014 69.1597 95.3349 68.3351 95.4151C67.5106 95.4954 66.7772 94.892 66.6969 94.0675C66.5666 92.7289 66.5 91.372 66.5 90C66.5 88.628 66.5666 87.2711 66.6969 85.9325C66.7772 85.108 67.5106 84.5046 68.3351 84.5849ZM147.665 84.5849C148.489 84.5046 149.223 85.108 149.303 85.9325C149.433 87.2711 149.5 88.628 149.5 90C149.5 91.372 149.433 92.7289 149.303 94.0675C149.223 94.892 148.489 95.4954 147.665 95.4151C146.84 95.3349 146.237 94.6014 146.317 93.7769C146.438 92.5347 146.5 91.2748 146.5 90C146.5 88.7252 146.438 87.4653 146.317 86.2231C146.237 85.3986 146.84 84.6651 147.665 84.5849ZM146.722 100.18C147.515 100.42 147.963 101.257 147.723 102.05C146.928 104.676 145.879 107.191 144.606 109.567C144.215 110.298 143.306 110.573 142.576 110.181C141.845 109.79 141.571 108.881 141.962 108.151C143.142 105.947 144.114 103.614 144.852 101.18C145.092 100.388 145.93 99.9396 146.722 100.18ZM69.2776 100.18C70.0704 99.9396 70.9079 100.388 71.1481 101.18C71.8855 103.614 72.8577 105.947 74.0383 108.151C74.4295 108.881 74.1545 109.79 73.4243 110.181C72.694 110.573 71.7849 110.298 71.3938 109.567C70.1208 107.191 69.0724 104.676 68.277 102.05C68.0368 101.257 68.4848 100.42 69.2776 100.18ZM76.1262 114.217C76.7662 113.691 77.7115 113.784 78.2374 114.424C79.8385 116.373 81.6273 118.161 83.5761 119.763C84.2162 120.289 84.3088 121.234 83.7829 121.874C83.257 122.514 82.3117 122.606 81.6716 122.081C79.5719 120.355 77.6446 118.428 75.9194 116.328C75.3935 115.688 75.4861 114.743 76.1262 114.217ZM139.874 114.217C140.514 114.743 140.606 115.688 140.081 116.328C138.355 118.428 136.428 120.355 134.328 122.081C133.688 122.606 132.743 122.514 132.217 121.874C131.691 121.234 131.784 120.289 132.424 119.763C134.373 118.161 136.161 116.373 137.763 114.424C138.289 113.784 139.234 113.691 139.874 114.217ZM87.8185 124.576C88.2097 123.845 89.1187 123.571 89.849 123.962C92.0533 125.142 94.3856 126.114 96.8196 126.852C97.6125 127.092 98.0604 127.93 97.8202 128.722C97.58 129.515 96.7426 129.963 95.9497 129.723C93.3243 128.928 90.8091 127.879 88.4325 126.606C87.7023 126.215 87.4274 125.306 87.8185 124.576ZM128.181 124.576C128.573 125.306 128.298 126.215 127.567 126.606C125.191 127.879 122.676 128.928 120.05 129.723C119.257 129.963 118.42 129.515 118.18 128.722C117.94 127.93 118.388 127.092 119.18 126.852C121.614 126.114 123.947 125.142 126.151 123.962C126.881 123.571 127.79 123.845 128.181 124.576ZM102.585 129.665C102.665 128.84 103.399 128.237 104.223 128.317C105.465 128.438 106.725 128.5 108 128.5C109.275 128.5 110.535 128.438 111.777 128.317C112.601 128.237 113.335 128.84 113.415 129.665C113.495 130.489 112.892 131.223 112.067 131.303C110.729 131.433 109.372 131.5 108 131.5C106.628 131.5 105.271 131.433 103.933 131.303C103.108 131.223 102.505 130.489 102.585 129.665Z" fill="#009990"/>
<path fill-rule="evenodd" clip-rule="evenodd" d="M199.933 48.6969C201.271 48.5666 202.628 48.5 204 48.5C205.372 48.5 206.729 48.5666 208.067 48.6969C208.892 48.7772 209.495 49.5106 209.415 50.3351C209.335 51.1597 208.601 51.763 207.777 51.6828C206.535 51.5619 205.275 51.5 204 51.5C202.725 51.5 201.465 51.5619 200.223 51.6828C199.399 51.763 198.665 51.1597 198.585 50.3351C198.505 49.5106 199.108 48.7772 199.933 48.6969ZM214.18 51.2776C214.42 50.4848 215.257 50.0368 216.05 50.277C218.676 51.0724 221.191 52.1208 223.567 53.3938C224.298 53.7849 224.573 54.694 224.181 55.4243C223.79 56.1545 222.881 56.4295 222.151 56.0383C219.947 54.8577 217.614 53.8855 215.18 53.1481C214.388 52.9079 213.94 52.0704 214.18 51.2776ZM193.82 51.2776C194.06 52.0704 193.612 52.9079 192.82 53.1481C190.386 53.8855 188.053 54.8577 185.849 56.0383C185.119 56.4295 184.21 56.1545 183.819 55.4243C183.427 54.694 183.702 53.7849 184.433 53.3938C186.809 52.1208 189.324 51.0724 191.95 50.277C192.743 50.0368 193.58 50.4848 193.82 51.2776ZM228.217 58.1262C228.743 57.4861 229.688 57.3935 230.328 57.9194C232.428 59.6446 234.355 61.5719 236.081 63.6716C236.606 64.3117 236.514 65.2569 235.874 65.7829C235.234 66.3088 234.289 66.2162 233.763 65.5761C232.161 63.6273 230.373 61.8385 228.424 60.2374C227.784 59.7115 227.691 58.7662 228.217 58.1262ZM179.783 58.1262C180.309 58.7662 180.216 59.7115 179.576 60.2374C177.627 61.8385 175.839 63.6273 174.237 65.5761C173.711 66.2162 172.766 66.3088 172.126 65.7829C171.486 65.257 171.394 64.3117 171.919 63.6716C173.645 61.5719 175.572 59.6446 177.672 57.9194C178.312 57.3935 179.257 57.4861 179.783 58.1262ZM238.576 69.8185C239.306 69.4274 240.215 69.7023 240.606 70.4325C241.879 72.8091 242.928 75.3243 243.723 77.9497C243.963 78.7426 243.515 79.58 242.722 79.8202C241.93 80.0604 241.092 79.6124 240.852 78.8196C240.114 76.3856 239.142 74.0533 237.962 71.849C237.571 71.1187 237.845 70.2097 238.576 69.8185ZM169.424 69.8185C170.155 70.2097 170.429 71.1187 170.038 71.849C168.858 74.0533 167.886 76.3856 167.148 78.8196C166.908 79.6125 166.07 80.0604 165.278 79.8202C164.485 79.58 164.037 78.7426 164.277 77.9497C165.072 75.3243 166.121 72.8091 167.394 70.4325C167.785 69.7023 168.694 69.4274 169.424 69.8185ZM164.335 84.5849C165.16 84.6651 165.763 85.3986 165.683 86.2231C165.562 87.4653 165.5 88.7252 165.5 90C165.5 91.2748 165.562 92.5347 165.683 93.7769C165.763 94.6014 165.16 95.3349 164.335 95.4151C163.511 95.4954 162.777 94.892 162.697 94.0675C162.567 92.7289 162.5 91.372 162.5 90C162.5 88.628 162.567 87.2711 162.697 85.9325C162.777 85.108 163.511 84.5046 164.335 84.5849ZM243.665 84.5849C244.489 84.5046 245.223 85.108 245.303 85.9325C245.433 87.2711 245.5 88.628 245.5 90C245.5 91.372 245.433 92.7289 245.303 94.0675C245.223 94.892 244.489 95.4954 243.665 95.4151C242.84 95.3349 242.237 94.6014 242.317 93.7769C242.438 92.5347 242.5 91.2748 242.5 90C242.5 88.7252 242.438 87.4653 242.317 86.2231C242.237 85.3986 242.84 84.6651 243.665 84.5849ZM242.722 100.18C243.515 100.42 243.963 101.257 243.723 102.05C242.928 104.676 241.879 107.191 240.606 109.567C240.215 110.298 239.306 110.573 238.576 110.181C237.845 109.79 237.571 108.881 237.962 108.151C239.142 105.947 240.114 103.614 240.852 101.18C241.092 100.388 241.93 99.9396 242.722 100.18ZM165.278 100.18C166.07 99.9396 166.908 100.388 167.148 101.18C167.886 103.614 168.858 105.947 170.038 108.151C170.429 108.881 170.155 109.79 169.424 110.181C168.694 110.573 167.785 110.298 167.394 109.567C166.121 107.191 165.072 104.676 164.277 102.05C164.037 101.257 164.485 100.42 165.278 100.18ZM172.126 114.217C172.766 113.691 173.711 113.784 174.237 114.424C175.839 116.373 177.627 118.161 179.576 119.763C180.216 120.289 180.309 121.234 179.783 121.874C179.257 122.514 178.312 122.606 177.672 122.081C175.572 120.355 173.645 118.428 171.919 116.328C171.394 115.688 171.486 114.743 172.126 114.217ZM235.874 114.217C236.514 114.743 236.606 115.688 236.081 116.328C234.355 118.428 232.428 120.355 230.328 122.081C229.688 122.606 228.743 122.514 228.217 121.874C227.691 121.234 227.784 120.289 228.424 119.763C230.373 118.161 232.161 116.373 233.763 114.424C234.289 113.784 235.234 113.691 235.874 114.217ZM183.819 124.576C184.21 123.845 185.119 123.571 185.849 123.962C188.053 125.142 190.386 126.114 192.82 126.852C193.612 127.092 194.06 127.93 193.82 128.722C193.58 129.515 192.743 129.963 191.95 129.723C189.324 128.928 186.809 127.879 184.433 126.606C183.702 126.215 183.427 125.306 183.819 124.576ZM224.181 124.576C224.573 125.306 224.298 126.215 223.567 126.606C221.191 127.879 218.676 128.928 216.05 129.723C215.257 129.963 214.42 129.515 214.18 128.722C213.94 127.93 214.388 127.092 215.18 126.852C217.614 126.114 219.947 125.142 222.151 123.962C222.881 123.571 223.79 123.845 224.181 124.576ZM198.585 129.665C198.665 128.84 199.399 128.237 200.223 128.317C201.465 128.438 202.725 128.5 204 128.5C205.275 128.5 206.535 128.438 207.777 128.317C208.601 128.237 209.335 128.84 209.415 129.665C209.495 130.489 208.892 131.223 208.067 131.303C206.729 131.433 205.372 131.5 204 131.5C202.628 131.5 201.271 131.433 199.933 131.303C199.108 131.223 198.505 130.489 198.585 129.665Z" fill="#009990"/>
<path fill-rule="evenodd" clip-rule="evenodd" d="M113 100H118V95H113V100ZM103 100H108V95H103V100ZM108 95H113V90H108V95ZM98 95H103V90H98V95ZM113 90H118V85H113V90ZM103 90H108V85H103V90ZM108 85H113V80H108V85ZM98 85H103V80H98V85ZM95.0833 75.8333C94.395 75.8333 93.8333 76.3933 93.8333 77.0833V102.917C93.8333 103.607 94.395 104.167 95.0833 104.167H120.917C121.605 104.167 122.167 103.607 122.167 102.917V77.0833C122.167 76.3933 121.605 75.8333 120.917 75.8333H95.0833ZM120.917 108.333H95.0833C92.0967 108.333 89.6667 105.903 89.6667 102.917V77.0833C89.6667 74.0967 92.0967 71.6667 95.0833 71.6667H120.917C123.903 71.6667 126.333 74.0967 126.333 77.0833V102.917C126.333 105.903 123.903 108.333 120.917 108.333Z" fill="#005C62"/>
<path d="M204 85.2577L200.339 93.4993H207.662L204 85.2577Z" fill="#005C62"/>
<path d="M204 85.2577L200.339 93.4993H207.662L204 85.2577Z" fill="black" fill-opacity="0.2"/>
<path fill-rule="evenodd" clip-rule="evenodd" d="M217.333 71.6668H190.667C187.905 71.6668 185.667 73.9052 185.667 76.6668V103.333C185.667 106.095 187.905 108.333 190.667 108.333H217.333C220.095 108.333 222.333 106.095 222.333 103.333V76.6668C222.333 73.9052 220.095 71.6668 217.333 71.6668ZM206.137 78.5543C205.762 77.711 204.924 77.1677 204 77.1677C203.075 77.1677 202.239 77.711 201.864 78.5543L192.535 99.5543C192.012 100.733 192.544 102.111 193.725 102.631C194.904 103.156 196.285 102.624 196.809 101.446L198.265 98.1677H209.735L211.192 101.446C211.579 102.316 212.434 102.834 213.33 102.834C213.647 102.834 213.969 102.769 214.277 102.631C215.457 102.111 215.989 100.733 215.465 99.5543L206.137 78.5543Z" fill="#005C62"/>
<path fill-rule="evenodd" clip-rule="evenodd" d="M217.333 71.6668H190.667C187.905 71.6668 185.667 73.9052 185.667 76.6668V103.333C185.667 106.095 187.905 108.333 190.667 108.333H217.333C220.095 108.333 222.333 106.095 222.333 103.333V76.6668C222.333 73.9052 220.095 71.6668 217.333 71.6668ZM206.137 78.5543C205.762 77.711 204.924 77.1677 204 77.1677C203.075 77.1677 202.239 77.711 201.864 78.5543L192.535 99.5543C192.012 100.733 192.544 102.111 193.725 102.631C194.904 103.156 196.285 102.624 196.809 101.446L198.265 98.1677H209.735L211.192 101.446C211.579 102.316 212.434 102.834 213.33 102.834C213.647 102.834 213.969 102.769 214.277 102.631C215.457 102.111 215.989 100.733 215.465 99.5543L206.137 78.5543Z" fill="black" fill-opacity="0.2"/>
</svg>

<svg xmlns="http://www.w3.org/2000/svg" width="312" height="180" fill="none"><path fill="#CCF6EE" fill-opacity=".5" fill-rule="evenodd" d="M103.933 48.697a41.957 41.957 0 0 1 8.134 0 1.5 1.5 0 0 1-.29 2.986 38.978 38.978 0 0 0-7.554 0 1.5 1.5 0 1 1-.29-2.986Zm14.247 2.58a1.5 1.5 0 0 1 1.87-1 41.21 41.21 0 0 1 7.517 3.117 1.5 1.5 0 1 1-1.416 2.645 38.25 38.25 0 0 0-6.971-2.89 1.5 1.5 0 0 1-1-1.871Zm-20.36 0a1.5 1.5 0 0 1-1 1.871 38.254 38.254 0 0 0-6.971 2.89 1.5 1.5 0 0 1-1.416-2.644 41.247 41.247 0 0 1 7.517-3.117 1.5 1.5 0 0 1 1.87 1Zm34.397 6.85a1.5 1.5 0 0 1 2.111-.208 41.782 41.782 0 0 1 5.753 5.753 1.501 1.501 0 0 1-2.318 1.904 38.775 38.775 0 0 0-5.339-5.339 1.5 1.5 0 0 1-.207-2.11Zm-48.434 0a1.5 1.5 0 0 1-.207 2.11 38.734 38.734 0 0 0-5.339 5.34 1.5 1.5 0 1 1-2.318-1.905 41.749 41.749 0 0 1 5.753-5.753 1.5 1.5 0 0 1 2.11.207Zm58.793 11.691a1.5 1.5 0 0 1 2.03.615 41.22 41.22 0 0 1 3.117 7.517 1.5 1.5 0 0 1-2.871.87 38.338 38.338 0 0 0-2.89-6.971 1.5 1.5 0 0 1 .614-2.03Zm-69.152 0a1.5 1.5 0 0 1 .614 2.031 38.254 38.254 0 0 0-2.89 6.97 1.5 1.5 0 1 1-2.871-.87 41.247 41.247 0 0 1 3.117-7.516 1.5 1.5 0 0 1 2.03-.615Zm-5.089 14.767a1.5 1.5 0 0 1 1.348 1.638 38.982 38.982 0 0 0 0 7.554 1.5 1.5 0 0 1-2.986.29 41.976 41.976 0 0 1 0-8.134 1.5 1.5 0 0 1 1.638-1.348Zm79.33 0a1.5 1.5 0 0 1 1.638 1.348 42.072 42.072 0 0 1 0 8.134 1.5 1.5 0 1 1-2.986-.29 38.95 38.95 0 0 0 0-7.554 1.5 1.5 0 0 1 1.348-1.638Zm-.943 15.595a1.5 1.5 0 0 1 1.001 1.87 41.182 41.182 0 0 1-3.117 7.517 1.499 1.499 0 1 1-2.644-1.416 38.333 38.333 0 0 0 2.89-6.971 1.5 1.5 0 0 1 1.87-1Zm-77.444 0a1.5 1.5 0 0 1 1.87 1 38.25 38.25 0 0 0 2.89 6.971 1.5 1.5 0 1 1-2.644 1.416 41.21 41.21 0 0 1-3.117-7.517 1.5 1.5 0 0 1 1-1.87Zm6.848 14.037a1.5 1.5 0 0 1 2.111.207 38.775 38.775 0 0 0 5.34 5.339 1.5 1.5 0 1 1-1.905 2.318 41.782 41.782 0 0 1-5.753-5.753 1.5 1.5 0 0 1 .207-2.111Zm63.748 0a1.5 1.5 0 0 1 .207 2.111 41.816 41.816 0 0 1-5.753 5.753 1.5 1.5 0 0 1-1.904-2.318 38.816 38.816 0 0 0 5.339-5.339 1.5 1.5 0 0 1 2.111-.207Zm-52.055 10.359a1.5 1.5 0 0 1 2.03-.614 38.338 38.338 0 0 0 6.97 2.89 1.5 1.5 0 1 1-.87 2.871 41.22 41.22 0 0 1-7.516-3.117 1.5 1.5 0 0 1-.615-2.03Zm40.362 0c.392.73.117 1.639-.614 2.03a41.182 41.182 0 0 1-7.517 3.117 1.5 1.5 0 0 1-.87-2.871 38.333 38.333 0 0 0 6.971-2.89 1.499 1.499 0 0 1 2.03.614Zm-25.596 5.089a1.5 1.5 0 0 1 1.638-1.348 38.945 38.945 0 0 0 7.554 0 1.5 1.5 0 0 1 .29 2.986 42.052 42.052 0 0 1-8.134 0 1.5 1.5 0 0 1-1.348-1.638Zm97.348-80.968a41.957 41.957 0 0 1 8.134 0 1.5 1.5 0 0 1-.29 2.986 38.978 38.978 0 0 0-7.554 0 1.5 1.5 0 1 1-.29-2.986Zm14.247 2.58a1.5 1.5 0 0 1 1.87-1 41.21 41.21 0 0 1 7.517 3.117 1.5 1.5 0 1 1-1.416 2.645 38.25 38.25 0 0 0-6.971-2.89 1.5 1.5 0 0 1-1-1.871Zm-20.36 0a1.5 1.5 0 0 1-1 1.871 38.25 38.25 0 0 0-6.971 2.89 1.5 1.5 0 1 1-1.416-2.644 41.21 41.21 0 0 1 7.517-3.117 1.5 1.5 0 0 1 1.87 1Zm34.397 6.85a1.5 1.5 0 0 1 2.111-.208 41.782 41.782 0 0 1 5.753 5.753 1.501 1.501 0 0 1-2.318 1.904 38.775 38.775 0 0 0-5.339-5.339 1.5 1.5 0 0 1-.207-2.11Zm-48.434 0a1.5 1.5 0 0 1-.207 2.11 38.775 38.775 0 0 0-5.339 5.34 1.5 1.5 0 1 1-2.318-1.905 41.782 41.782 0 0 1 5.753-5.753 1.5 1.5 0 0 1 2.111.207Zm58.793 11.691a1.5 1.5 0 0 1 2.03.615 41.22 41.22 0 0 1 3.117 7.517 1.5 1.5 0 0 1-2.871.87 38.338 38.338 0 0 0-2.89-6.971 1.5 1.5 0 0 1 .614-2.03Zm-69.152 0a1.5 1.5 0 0 1 .614 2.031 38.338 38.338 0 0 0-2.89 6.97 1.5 1.5 0 1 1-2.871-.87 41.22 41.22 0 0 1 3.117-7.516 1.5 1.5 0 0 1 2.03-.615Zm-5.089 14.767a1.5 1.5 0 0 1 1.348 1.638 38.95 38.95 0 0 0 0 7.554 1.5 1.5 0 0 1-2.986.29 42.072 42.072 0 0 1 0-8.134 1.5 1.5 0 0 1 1.638-1.348Zm79.33 0a1.5 1.5 0 0 1 1.638 1.348 42.072 42.072 0 0 1 0 8.134 1.5 1.5 0 1 1-2.986-.29 38.95 38.95 0 0 0 0-7.554 1.5 1.5 0 0 1 1.348-1.638Zm-.943 15.595a1.5 1.5 0 0 1 1.001 1.87 41.182 41.182 0 0 1-3.117 7.517 1.499 1.499 0 1 1-2.644-1.416 38.333 38.333 0 0 0 2.89-6.971 1.5 1.5 0 0 1 1.87-1Zm-77.444 0a1.5 1.5 0 0 1 1.87 1 38.333 38.333 0 0 0 2.89 6.971 1.499 1.499 0 1 1-2.644 1.416 41.182 41.182 0 0 1-3.117-7.517 1.5 1.5 0 0 1 1.001-1.87Zm6.848 14.037a1.5 1.5 0 0 1 2.111.207 38.816 38.816 0 0 0 5.339 5.339 1.5 1.5 0 1 1-1.904 2.318 41.816 41.816 0 0 1-5.753-5.753 1.5 1.5 0 0 1 .207-2.111Zm63.748 0a1.5 1.5 0 0 1 .207 2.111 41.816 41.816 0 0 1-5.753 5.753 1.5 1.5 0 0 1-1.904-2.318 38.816 38.816 0 0 0 5.339-5.339 1.5 1.5 0 0 1 2.111-.207Zm-52.055 10.359a1.499 1.499 0 0 1 2.03-.614 38.333 38.333 0 0 0 6.971 2.89 1.5 1.5 0 0 1-.87 2.871 41.182 41.182 0 0 1-7.517-3.117 1.498 1.498 0 0 1-.614-2.03Zm40.362 0c.392.73.117 1.639-.614 2.03a41.182 41.182 0 0 1-7.517 3.117 1.5 1.5 0 0 1-.87-2.871 38.333 38.333 0 0 0 6.971-2.89 1.499 1.499 0 0 1 2.03.614Zm-25.596 5.089a1.5 1.5 0 0 1 1.638-1.348 38.945 38.945 0 0 0 7.554 0 1.5 1.5 0 0 1 .29 2.986 42.052 42.052 0 0 1-8.134 0 1.5 1.5 0 0 1-1.348-1.638Z" clip-rule="evenodd"/><path fill="#F6FDF5" fill-rule="evenodd" d="M113 100h5v-5h-5v5Zm-10 0h5v-5h-5v5Zm5-5h5v-5h-5v5Zm-10 0h5v-5h-5v5Zm15-5h5v-5h-5v5Zm-10 0h5v-5h-5v5Zm5-5h5v-5h-5v5Zm-10 0h5v-5h-5v5Zm-2.917-9.167c-.688 0-1.25.56-1.25 1.25v25.834c0 .69.562 1.25 1.25 1.25h25.834c.688 0 1.25-.56 1.25-1.25V77.083c0-.69-.562-1.25-1.25-1.25H95.083Zm25.834 32.5H95.083a5.423 5.423 0 0 1-5.416-5.416V77.083a5.423 5.423 0 0 1 5.416-5.416h25.834a5.423 5.423 0 0 1 5.416 5.416v25.834a5.423 5.423 0 0 1-5.416 5.416Z" clip-rule="evenodd"/><path fill="#F6FDF5" d="m204 85.258-3.661 8.241h7.323L204 85.258Z"/><path fill="#F6FDF5" fill-rule="evenodd" d="M217.333 71.667h-26.666a5 5 0 0 0-5 5v26.666a5 5 0 0 0 5 5h26.666a5 5 0 0 0 5-5V76.667a5 5 0 0 0-5-5Zm-11.196 6.887a2.338 2.338 0 0 0-4.273 0l-9.329 21a2.328 2.328 0 0 0 1.19 3.077 2.336 2.336 0 0 0 3.084-1.185l1.456-3.278h11.47l1.457 3.278a2.34 2.34 0 0 0 3.085 1.185 2.327 2.327 0 0 0 1.188-3.077l-9.328-21Z" clip-rule="evenodd"/></svg>
